images/jdc-pattern.svg

<svg xmlns="http://www.w3.org/2000/svg" viewBox="0 0 600 200"><path d="M100 200H0c0-27.61 22.39-50 50-50s50 22.39 50 50ZM50 100c-27.61 0-50 22.39-50 50h100c0-27.61-22.39-50-50-50Zm200 50c-27.61 0-50 22.39-50 50h100c0-27.61-22.39-50-50-50Zm0-50c-27.61 0-50 22.39-50 50h100c0-27.61-22.39-50-50-50Zm0-50c-27.61 0-50 22.39-50 50h100c0-27.61-22.39-50-50-50Zm0-50c-27.61 0-50 22.39-50 50h100c0-27.61-22.39-50-50-50Zm150 0H300c0 27.61 22.39 50 50 50s50-22.39 50-50Zm0 50H300c0 27.61 22.39 50 50 50s50-22.39 50-50ZM200 0c-27.61 0-50 22.39-50 50s22.39 50 50 50V0ZM100 50c0 27.61 22.39 50 50 50V0c-27.61 0-50 22.39-50 50Zm450 0c0 27.61 22.39 50 50 50V0c-27.61 0-50 22.39-50 50Zm-50 0c0 27.61 22.39 50 50 50V0c-27.61 0-50 22.39-50 50ZM400 0v100c27.61 0 50-22.39 50-50S427.61 0 400 0Zm50 0v100c27.61 0 50-22.39 50-50S477.61 0 450 0ZM100 100v100c27.61 0 50-22.39 50-50s-22.39-50-50-50Zm100 0c-27.61 0-50 22.39-50 50s22.39 50 50 50V100Zm250 50c0-27.61-22.39-50-50-50v100c27.61 0 50-22.39 50-50Zm50 50V100c-27.61 0-50 22.39-50 50s22.39 50 50 50ZM300 100c0 27.61 22.39 50 50 50s50-22.39 50-50H300Zm50 50c-27.61 0-50 22.39-50 50h100c0-27.61-22.39-50-50-50Z" fill="#e8e8e5"/><path d="M550 103c25.92 0 47 21.08 47 47s-21.08 47-47 47-47-21.08-47-47 21.08-47 47-47m0-3c-27.61 0-50 22.39-50 50s22.39 50 50 50 50-22.39 50-50-22.39-50-50-50Z"/><path d="M100 51.5H57.37l39.24 16.66-1.17 2.76L56.52 54.4l29.9 29.9-2.12 2.12-29.9-29.9 16.52 38.92-2.76 1.17L51.5 57.37V100h-3V57.37L31.84 96.61l-2.76-1.17L45.6 56.52l-29.9 29.9-2.12-2.12 29.9-29.9L4.56 70.92l-1.17-2.76L42.63 51.5H0v-3h42.63L3.39 31.84l1.17-2.76L43.48 45.6l-29.9-29.89 2.12-2.12 29.9 29.9L29.08 4.56l2.76-1.17L48.5 42.63V0h3v42.63L68.16 3.39l2.76 1.17L54.4 43.48l29.9-29.9 2.12 2.12-29.9 29.9 38.92-16.52 1.17 2.76L57.37 48.5H100v3Z" fill="#ff0048"/></svg>

<?xml version="1.0" encoding="utf-8"?>
<!-- Generator: Adobe Illustrator 28.1.0, SVG Export Plug-In . SVG Version: 6.00 Build 0)  -->
<svg version="1.1" id="Layer_1" xmlns="http://www.w3.org/2000/svg" xmlns:xlink="http://www.w3.org/1999/xlink" x="0px" y="0px"
	 viewBox="0 0 600 200" style="enable-background:new 0 0 600 200;" xml:space="preserve">
<style type="text/css">
	.st0{fill:#DBDBD9;}
</style>
<path class="st0" d="M100,200H0c0-27.6,22.4-50,50-50S100,172.4,100,200z M50,100c-27.6,0-50,22.4-50,50h100
	C100,122.4,77.6,100,50,100z M250,150c-27.6,0-50,22.4-50,50h100C300,172.4,277.6,150,250,150z M250,100c-27.6,0-50,22.4-50,50h100
	C300,122.4,277.6,100,250,100z M250,50c-27.6,0-50,22.4-50,50h100C300,72.4,277.6,50,250,50z M250,0c-27.6,0-50,22.4-50,50h100
	C300,22.4,277.6,0,250,0z M400,0H300c0,27.6,22.4,50,50,50S400,27.6,400,0z M400,50H300c0,27.6,22.4,50,50,50S400,77.6,400,50z
	 M200,0c-27.6,0-50,22.4-50,50s22.4,50,50,50V0z M100,50c0,27.6,22.4,50,50,50V0C122.4,0,100,22.4,100,50z M550,50
	c0,27.6,22.4,50,50,50V0C572.4,0,550,22.4,550,50z M500,50c0,27.6,22.4,50,50,50V0C522.4,0,500,22.4,500,50z M400,0v100
	c27.6,0,50-22.4,50-50S427.6,0,400,0z M450,0v100c27.6,0,50-22.4,50-50S477.6,0,450,0z M100,100v100c27.6,0,50-22.4,50-50
	S127.6,100,100,100z M200,100c-27.6,0-50,22.4-50,50s22.4,50,50,50V100z M450,150c0-27.6-22.4-50-50-50v100
	C427.6,200,450,177.6,450,150z M500,200V100c-27.6,0-50,22.4-50,50S472.4,200,500,200z M300,100c0,27.6,22.4,50,50,50s50-22.4,50-50
	H300z M350,150c-27.6,0-50,22.4-50,50h100C400,172.4,377.6,150,350,150z"/>
<path d="M550,103c25.9,0,47,21.1,47,47s-21.1,47-47,47s-47-21.1-47-47S524.1,103,550,103 M550,100c-27.6,0-50,22.4-50,50
	s22.4,50,50,50s50-22.4,50-50S577.6,100,550,100z"/>
<path d="M100,51.5H57.4l39.2,16.7l-1.2,2.8L56.5,54.4l29.9,29.9l-2.1,2.1L54.4,56.5l16.5,38.9l-2.8,1.2L51.5,57.4V100h-3V57.4
	L31.8,96.6l-2.8-1.2l16.5-38.9L15.7,86.4l-2.1-2.1l29.9-29.9L4.6,70.9l-1.2-2.8l39.2-16.7H0v-3h42.6L3.4,31.8l1.2-2.8l38.9,16.5
	L13.6,15.7l2.1-2.1l29.9,29.9L29.1,4.6l2.8-1.2l16.7,39.2V0h3v42.6L68.2,3.4l2.8,1.2L54.4,43.5l29.9-29.9l2.1,2.1L56.5,45.6
	l38.9-16.5l1.2,2.8L57.4,48.5H100V51.5z"/>
</svg>
